src/icons/svgs/16/file-image.svg

<svg width="16" height="16" viewBox="0 0 16 16" fill="none" xmlns="http://www.w3.org/2000/svg">
<path d="M8.83333 4.25V1H4.25C3.55964 1 3 1.54564 3 2.21875V12.7812C3 13.4541 3.55964 14 4.25 14H11.75C12.4404 14 13 13.4544 13 12.7812V5.0625H9.6901C9.20573 5.0625 8.83333 4.69941 8.83333 4.25ZM5.5 6.6875C5.96016 6.6875 6.33333 7.05135 6.33333 7.5C6.33333 7.94865 5.96094 8.3125 5.5 8.3125C5.03906 8.3125 4.66667 7.94941 4.66667 7.5C4.66667 7.05059 5.03984 6.6875 5.5 6.6875ZM11.2839 12.1592C11.2109 12.2937 11.0703 12.375 10.9167 12.375H5.08333C4.92969 12.375 4.78854 12.2925 4.71589 12.1604C4.6803 12.0956 4.66344 12.0226 4.66708 11.9492C4.67073 11.8757 4.69475 11.8047 4.73659 11.7435L6.12539 9.71226C6.17969 9.5998 6.3099 9.53125 6.47135 9.53125C6.63281 9.53125 6.74089 9.59914 6.81797 9.71216L7.16667 10.2219L8.34766 8.49455C8.42448 8.38105 8.55469 8.3125 8.69531 8.3125C8.83594 8.3125 8.96484 8.38039 9.04193 8.49341L11.2641 11.7434C11.349 11.8672 11.3568 12.0271 11.2839 12.1592ZM9.66667 1V4.25H13L9.66667 1Z" fill="black"/>
</svg>

<svg width="16" height="16" viewBox="0 0 16 16" xmlns="http://www.w3.org/2000/svg">
    <path d="M8.833 4.25V1H4.25C3.56 1 3 1.546 3 2.219V12.78c0 .674.56 1.22 1.25 1.22h7.5c.69 0 1.25-.546 1.25-1.219V5.062H9.69c-.484 0-.857-.363-.857-.812zM5.5 6.688c.46 0 .833.363.833.812a.823.823 0 0 1-.833.813.822.822 0 0 1-.833-.813c0-.45.373-.813.833-.813zm5.784 5.471a.415.415 0 0 1-.367.216H5.083a.419.419 0 0 1-.367-.215.398.398 0 0 1 .02-.417l1.39-2.03c.054-.113.184-.182.345-.182.162 0 .27.068.347.181l.349.51 1.18-1.727a.419.419 0 0 1 .348-.182c.14 0 .27.067.347.18l2.222 3.25a.395.395 0 0 1 .02.416zM9.667 1v3.25H13L9.667 1z"/>
</svg>
